lib/radiotmp/nrk-edit-expressive.svg

<svg width="24" height="24" viewBox="0 0 24 24" fill="none" xmlns="http://www.w3.org/2000/svg">
<path d="M18.0212 5.15903C16.8527 3.96974 14.9387 3.96127 13.7598 5.14018L4.17157 14.7284C3.42143 15.4786 3 16.496 3 17.5569V21.6H7.03402C8.10028 21.6 9.12241 21.1743 9.87343 20.4174L19.4137 10.8026C20.5702 9.63706 20.5749 7.75834 19.4242 6.58708L18.0212 5.15903ZM8.09289 19.2071C7.90536 19.3946 7.651 19.5 7.38579 19.5H5V17.1142C5 16.849 5.10536 16.5946 5.29289 16.4071L12.9 8.8L15.7 11.6L8.09289 19.2071ZM14.3 7.4L15.1929 6.50711C15.5834 6.11658 16.2166 6.11658 16.6071 6.50711L17.9929 7.89289C18.3834 8.28342 18.3834 8.91658 17.9929 9.30711L17.1 10.2L14.3 7.4Z" fill="black"/>
<g opacity="0.5">
<path d="M12 22H20C20.5523 22 21 21.5523 21 21C21 20.4477 20.5523 20 20 20H14L12 22Z" fill="black"/>
</g>
</svg>

<svg xmlns="http://www.w3.org/2000/svg" viewBox="0 0 24 24"><path fill="#000" d="M18.021 5.159a3 3 0 0 0-4.261-.019l-9.588 9.588A4 4 0 0 0 3 17.557V21.6h4.034a4 4 0 0 0 2.84-1.183l9.54-9.614a3 3 0 0 0 .01-4.216L18.021 5.16ZM8.093 19.207a1 1 0 0 1-.707.293H5v-2.386a1 1 0 0 1 .293-.707L12.9 8.8l2.8 2.8-7.607 7.607ZM14.3 7.4l.893-.893a1 1 0 0 1 1.414 0l1.386 1.386a1 1 0 0 1 0 1.414l-.893.893-2.8-2.8Z"/><path fill="#000" d="M12 22h8a1 1 0 1 0 0-2h-6l-2 2Z" opacity=".5"/></svg>
